svgs/duotone/floppy-disk-circle-xmark.svg

<svg xmlns="http://www.w3.org/2000/svg" viewBox="0 0 576 512"><!--! Font Awesome Pro 6.3.0 by @fontawesome - https://fontawesome.com License - https://fontawesome.com/license (Commercial License) Copyright 2023 Fonticons, Inc. --><defs><style>.fa-secondary{opacity:.4}</style></defs><path class="fa-primary" d="M432 224C352.5 224 288 288.5 288 368s64.47 144 144 144s144-64.47 144-144S511.5 224 432 224zM488.5 401.9c6.242 6.242 6.252 16.37 .0098 22.62c-6.24 6.242-16.37 6.231-22.62-.0113l-33.91-33.91l-33.91 33.91c-6.242 6.242-16.37 6.253-22.62 .0106s-6.232-16.37 .0098-22.62l33.91-33.91l-33.91-33.91c-6.242-6.242-6.251-16.37-.009-22.62s16.37-6.232 22.62 .0106l33.91 33.91l33.91-33.91c6.242-6.242 16.37-6.254 22.61-.0113s6.233 16.37-.009 22.62l-33.91 33.91L488.5 401.9z"/><path class="fa-secondary" d="M433.1 129.1l-83.9-83.9C342.3 38.32 327.1 32 316.1 32H64C28.65 32 0 60.65 0 96v320c0 35.35 28.65 64 64 64h232.2c-17.65-21.37-30.28-46.99-36.28-75.07C249.7 411.9 237.3 416 224 416c-35.34 0-64-28.66-64-64s28.66-64 64-64c16.93 0 32.21 6.697 43.66 17.43C292.9 239.2 356.9 192 432 192c5.402 0 10.72 .3301 16 .8066V163.9C448 152.9 441.7 137.7 433.1 129.1zM320 208C320 216.8 312.8 224 304 224h-224C71.16 224 64 216.8 64 208v-96C64 103.2 71.16 96 80 96h224C312.8 96 320 103.2 320 112V208z"/></svg>

<svg xmlns="http://www.w3.org/2000/svg" viewBox="0 0 576 512"><!-- Font Awesome Pro 6.0.0-alpha2 by @fontawesome - https://fontawesome.com License - https://fontawesome.com/license (Commercial License) --><defs><style>.fa-secondary{opacity:.4}</style></defs><path d="M433.938 129.938L350.062 46.062C342.328 38.328 327.051 32 316.113 32H64C28.654 32 0 60.652 0 96V416C0 451.346 28.654 480 64 480H296.234C278.588 458.633 265.953 433.01 259.951 404.928C249.701 411.904 237.334 416 224 416C188.656 416 160 387.344 160 352S188.656 288 224 288C240.928 288 256.213 294.697 267.658 305.43C292.908 239.164 356.869 192 432 192C437.402 192 442.723 192.33 448 192.807V163.887C448 152.949 441.672 137.672 433.938 129.938ZM320 208C320 216.836 312.836 224 304 224H80C71.164 224 64 216.836 64 208V112C64 103.162 71.164 96 80 96H304C312.836 96 320 103.162 320 112V208Z" class="fa-secondary"/><path d="M432 224C352.471 224 288 288.471 288 368S352.471 512 432 512S576 447.529 576 368S511.529 224 432 224ZM488.514 401.908C494.756 408.15 494.756 418.271 488.514 424.514C482.273 430.756 472.15 430.756 465.908 424.514L432.002 390.607L398.092 424.518C391.85 430.76 381.729 430.76 375.486 424.518S369.244 408.154 375.486 401.912L409.396 368.002L375.482 334.088C369.24 327.846 369.24 317.725 375.482 311.482S391.848 305.24 398.09 311.482L432.002 345.396L465.912 311.486C472.154 305.244 482.275 305.244 488.518 311.486S494.76 327.85 488.518 334.092L454.607 368.002L488.514 401.908Z" class="fa-primary"/></svg>
